X: 1
T: Battle of Waterloo  [A]
T: Bonaparte's March
%date: 1913
B: Frank Roche: "Collection of Traditional Irish Music" vol.2 1913
R: March
C: Trad., arr. Hamish Moore
O: Source: Hamish Moore's School of Piping
Z: Transcribed by A. Upton
M: 4/4
L: 1/8
K: Amix
EF/G/ | A2AB AGGA | cdec d2ef/g/ | aged edBA | GGGA G2ed/B/ | A2AB AGGA |
cdec d2ef/g/ | aged edBA | A4 A2 |] ef/g/ | aged cdef | gage g2ef/g/ |
aged edBA | GGGA G2ed/B/ | A2AB AGGA | cdec d2ef/g/ | aged edBA | A4 A2 |]
